X:1
T:World Turned Upside Down
M:4/4
Q:160
L:1/4
K:G
| DGGG| A/B/ c/d/ B A/B/ | cEFB | A2 G2 :|
| AF/G/A2 | AF/G/A2 | AF/G/ A/G/ F | E2 D2 |
d3/2 c/B  A/G/ | A/B/ c/d/ B  A/B/ | c EFB | A2G2 ||
